X: 29660
T: Northumberland Air
R: waltz
M: 3/4
K: Gmajor
B2 A3 B|A2 G4|G2 c2 B2|A6|F2 E3 F|E2 D4|c2 d2 A2|B6|
B2 A3 B|A2 G4|d3 c B2|c6|e2 d3 c|d2 B4|E2 G2 A2|G6-|G6:|
|:d2 g3 e|e3 f g2|f3 d d2|d6|e3 c c2|c2 d3 e|d6-|d6|
G3 G G2|G2 A3 B|c4 B2|A4 G2|F3 F F2|F B3 A2|G6-|G6:|

